actions/16/view-financial-account.svg

<svg viewBox="0 0 16 16" xmlns="http://www.w3.org/2000/svg">
  <style type="text/css" id="current-color-scheme">
    .ColorScheme-Text {
      color:#eff0f1;
    }
    .ColorScheme-NegativeText {
      color:#da4453;
    }
  </style>
<path
    d="m3 2v6h-2v1h12v-1h-9v-5h10v11h1v-12h-12zm2 2v1h4v-1h-4zm0 2v1h3v-1h-3zm-4 4v4h12v-4h-12zm9 1h2v2h-2v-2zm-8 1h1v1h-1v-1zm2 0h1v1h-1v-1zm2 0h1v1h-1v-1zm2 0h1v1h-1v-1z"
    style="fill:currentColor;fill-opacity:1;stroke:none"
    class="ColorScheme-Text"
    />
<path
    d="m10 4v1h3v-1z"
    style="fill:currentColor;fill-opacity:1;stroke:none"
    class="ColorScheme-NegativeText"
    />
</svg>

<svg viewBox="0 0 16 16" xmlns="http://www.w3.org/2000/svg">
  <style type="text/css" id="current-color-scheme">.ColorScheme-Text {color:#fcfcfc;}.ColorScheme-NegativeText {color:#da4453;}</style>
<path
    d="M 3,4 V 8 H 1 V 9 H 13 V 8 H 4 V 4 c 0,0 0,-1 1,-1 1,0 7,0 8,0 1,0 1,1 1,1 v 10 h 1 V 4 C 15,4 15,2 13,2 11,2 7,2 5,2 3,2 3,4 3,4 Z M 5,4 V 5 H 9 V 4 Z M 5,6 V 7 H 8 V 6 Z m -4,4 v 4 h 12 v -4 z m 9,1 h 2 v 2 h -2 z m -8,1 h 1 v 1 H 2 Z m 2,0 h 1 v 1 H 4 Z m 2,0 h 1 v 1 H 6 Z m 2,0 h 1 v 1 H 8 Z"
    style="fill:currentColor;fill-opacity:1;stroke:none"
    class="ColorScheme-Text"
    />
<path
    d="m10 4v1h3v-1z"
    style="fill:currentColor;fill-opacity:1;stroke:none"
    class="ColorScheme-NegativeText"
    />
</svg>
